X: 534
T: Dağlar Dağlar Viran Dağlar
C: (Anonim)
O: Turkey
F: http://compmusic.upf.edu/node/140
N: hicaz--turku--nimsofyan--daglar_daglar--
N: makam= hicaz
N: form= turku
N: usul= nimsofyan = 2/4
M: 2/4
L: 1/16
K: C _7/8B ^f ^c 
Q: 1/4=78
%%MIDI tuningsystem comma53
ee2f g2a2  | g2=f2 e2d2  | edcd efga  | \
w:  ARANAĞME  |   |   | 
g=fed cBBA  | 
w:   | 
A3a g=fed  | c3d cBBA  | AA2B c2d2  | e2f2 g2a2  | 
w:   |   |   |   | 
ee2f g2a2  | g2=f2 e2d2  | edcd efga  | \
w:  ARANAĞME  |   |   | 
g=fed cBBA  | 
w:   | 
A3a g=fed  | c3d cBBA  | AGAB cde=f  | edcd eg=fe  | 
w:   |   |   |   | 
e4 e2=f2  | e3d c3/2B/c2  | d4 e4  | e4 =f3e  | \
w:  *  Dağ lar   |  dağ *  lar   |  vî ran   |  *  dağ  | 
d4 c2d2  | e3d edc2  | 
w:   |  *  *  lar    | 
c4 c3d  | cBBA A2g2  | g2g=f f2fe  | eeed cde=f  | 
w:   |  *  *  *  *  *  SAZ  |   |   | 
g2=fe eddc  | d2ed d4  | c2d2 c2B2  | A2G2 A2Bc  | d8  | 
w:   |   |  Yü züm  gü  |  ler  *  kal  |  bim   | 
dcBc BAB2  | B2A2 c3B  | cBA6  | AcBA GABc  | 
w:  ağ  |   |  lar    |  SAZ  | 
d4 c2d2  | c2B2 A2G2  | A2Bc d4  | d4 dcB2  | \
w:  *  Yü züm   |  gü *  ler   |  kal *  *  bim   |  *  ağ  | 
BAB2 B2A2  | c3B cBA2  | 
w:   |  *  *  lar    | 
A4 AGAB  | cde=f edcd  | egfe e4  | e2=f2 e3d  | 
w:  *  SAZ  |   |   |  Yü re ğim  | 
c3/2B/c2 d4  | e8  | =f3e d4  | c2d2 e3d  | \
w:  den  *  *  kan  |  lar   |  dam  |   | 
edc6  | c3d cBBA  | 
w:  lar    |   | 
A2g4g=f  | =f2fe e2ed  | cdef g2=fe  | eddc d2ed  | 
w:  *  SAZ  |   |   |   | 
d4 c2d2  | c2B2 A2G2  | A2Bc d4  | d4 dcBc  | \
w:  *  Bir_ o  |  lay *  dı   |  bir_ *  *  o  |  *  lay  | 
BAB2 B2A2  | 
w:   | 
c3B cBA2  | A4 AcBA  | GABc d4  | c2d2 c2B2  | \
w:  *  *  dı    |  *  SAZ  |   |  Ne  o lur   | 
A2G2 A2Bc  | 
w:  be *  nim_  | 
d8  | dcBc BAB2  | B2A2 c3B  | cBA6  | BABc A4  | \
w:  o  |  lay  |   |  dı    |  SAZ  | 
ee2f g2a2  | 
w:  ARANAĞME  | 
g2=f2 e2d2  | edcd efga  | g=fed cBBA  | \
w:   |   |   | 
A3a g=fed  | 
w:   | 
c3d cBBA  | AA2B c2d2  | e2f2 g2a2  | ee2f g2a2  | \
w:   |   |   |  ARANAĞME  | 
g2=f2 e2d2  | 
w:   | 
edcd efga  | g=fed cBBA  | A3a g=fed  | 
w:   |   |   | 
c3d cBBA  | AGAB cde=f  | edcd eg=fe  | 
w:   |   |   | 
e4 e2=f2  | e3d c3/2B/c2  | d4 e4  | e4 =f3e  | \
w:  *  Dağ lar   |  dağ *  lar   |  vî ran   |  *  dağ  | 
d4 c2d2  | e3d edc2  | 
w:   |  *  *  lar    | 
c4 c3d  | cBBA A2g2  | g2g=f f2fe  | eeed cde=f  | 
w:   |  *  *  *  *  *  SAZ  |   |   | 
g2=fe eddc  | d2ed d4  | c2d2 c2B2  | A2G2 A2Bc  | d8  | 
w:   |   |  Yü züm  gü  |  ler  *  kal  |  bim   | 
dcBc BAB2  | B2A2 c3B  | cBA6  | AcBA GABc  | 
w:  ağ  |   |  lar    |  SAZ  | 
d4 c2d2  | c2B2 A2G2  | A2Bc d4  | d4 dcB2  | \
w:  *  Yü züm   |  gü *  ler   |  kal *  *  bim   |  *  ağ  | 
BAB2 B2A2  | c3B cBA2  | 
w:   |  *  *  lar    | 
A4 AGAB  | cde=f edcd  | egfe e4  | e2=f2 e3d  | 
w:  *  SAZ  |   |   |  Yü re ğim  | 
c3/2B/c2 d4  | e8  | =f3e d4  | c2d2 e3d  | \
w:  den  *  *  kan  |  lar   |  dam  |   | 
edc6  | c3d cBBA  | 
w:  lar    |   | 
A2g4g=f  | =f2fe e2ed  | cdef g2=fe  | eddc d2ed  | 
w:  *  SAZ  |   |   |   | 
d4 c2d2  | c2B2 A2G2  | A2Bc d4  | d4 dcBc  | \
w:  *  Bir_ o  |  lay *  dı   |  bir_ *  *  o  |  *  lay  | 
BAB2 B2A2  | 
w:   | 
c3B cBA2  | A4 AcBA  | GABc d4  | c2d2 c2B2  | \
w:  *  *  dı    |  *  SAZ  |   |  Ne  o lur   | 
A2G2 A2Bc  | 
w:  be *  nim_  | 
d8  | dcBc BAB2  | B2A2 c3B  | cBA6  | BABc A4  | |


